public/icons/icon/lock.svg

<svg width="30" height="30" viewBox="0 0 30 30" fill="none" xmlns="http://www.w3.org/2000/svg">
<path d="M5 14.0215C5 13.4692 5.44772 13.0215 6 13.0215H24C24.5523 13.0215 25 13.4692 25 14.0215V26.0215C25 26.5738 24.5523 27.0215 24 27.0215H6C5.44772 27.0215 5 26.5738 5 26.0215V14.0215Z" stroke="black" stroke-width="2" stroke-linejoin="round"/>
<path d="M21 13.0219V9.28841C21 5.42747 18.8637 2.97851 15.0028 2.97851V2.97851V2.97851C11.1423 2.97851 9 5.43346 9 9.29393V13.0219" stroke="black" stroke-width="2"/>
</svg>

<svg xmlns="http://www.w3.org/2000/svg" width="30" height="30" fill="none"><path stroke="#000" stroke-linejoin="round" stroke-width="2" d="M5 14.021a1 1 0 0 1 1-1h18a1 1 0 0 1 1 1v12a1 1 0 0 1-1 1H6a1 1 0 0 1-1-1v-12Z"/><path stroke="#000" stroke-width="2" d="M21 13.022V9.288c0-3.86-2.136-6.31-5.997-6.31C11.143 2.979 9 5.434 9 9.295v3.728"/></svg>
